X:1033
T:Da Isles o' Gletness
C:Joe Buchanan's Scottish Tome - Page 620.0
I:620 0
Z:Carl Allison
R:Waltz
L:1/4
M:3/4
K:A
"A"e>f e | "A7"c B A | "D"F>G A | "A"A E2 | "A"e>f e | "F#m"c B A | "B7"F G A | "E7"B3 |
"A"e>f e | "A7"c B A | "D"F>G A | "A"A E2 | "D"d>e f | "A"e c A | "E7"E G B | "A"A3 |
"D"F A>d | "D"f2 d | "A"E A>c | "A"e2 c | "F#m"A>A A | "F#m"A G F | "B7"F G A | "E7"B3 |
"A"e>f e | "A7"c B A | "D"F>G A | "A"A E2 | "D"d>e f | "A"e>c A | "E7"E G B | "A"A3 :|
